icons/apps-17.svg

<svg width="16" height="17" viewBox="0 0 16 17" fill="none" xmlns="http://www.w3.org/2000/svg">
<path fill-rule="evenodd" clip-rule="evenodd" d="M2 2.76638C2 2.43501 2.26863 2.16638 2.6 2.16638H6.8C7.13137 2.16638 7.4 2.43501 7.4 2.76638V6.96638C7.4 7.29775 7.13137 7.56638 6.8 7.56638H2.6C2.26863 7.56638 2 7.29775 2 6.96638V2.76638ZM3.2 3.36638V6.36638H6.2V3.36638H3.2Z" fill="#272431"/>
<path fill-rule="evenodd" clip-rule="evenodd" d="M8.6001 2.76638C8.6001 2.43501 8.86873 2.16638 9.2001 2.16638H13.4001C13.7315 2.16638 14.0001 2.43501 14.0001 2.76638V6.96638C14.0001 7.29775 13.7315 7.56638 13.4001 7.56638H9.2001C8.86873 7.56638 8.6001 7.29775 8.6001 6.96638V2.76638ZM9.8001 3.36638V6.36638H12.8001V3.36638H9.8001Z" fill="#272431"/>
<path fill-rule="evenodd" clip-rule="evenodd" d="M2.6 8.76636C2.26863 8.76636 2 9.03499 2 9.36636V13.5664C2 13.8977 2.26863 14.1664 2.6 14.1664H6.8C7.13137 14.1664 7.4 13.8977 7.4 13.5664V9.36636C7.4 9.03499 7.13137 8.76636 6.8 8.76636H2.6ZM3.2 12.9664V9.96636H6.2V12.9664H3.2Z" fill="#272431"/>
<path d="M11.3 9.06641C11.6313 9.06641 11.9 9.33503 11.9 9.66641V10.8665H13.1001C13.4315 10.8665 13.7001 11.1351 13.7001 11.4665C13.7001 11.7978 13.4315 12.0665 13.1001 12.0665H11.9V13.2664C11.9 13.5978 11.6313 13.8664 11.3 13.8664C10.9686 13.8664 10.7 13.5978 10.7 13.2664V12.0665H9.50015C9.16878 12.0665 8.90015 11.7978 8.90015 11.4665C8.90015 11.1351 9.16878 10.8665 9.50015 10.8665H10.7V9.66641C10.7 9.33503 10.9686 9.06641 11.3 9.06641Z" fill="#272431"/>
</svg>

<svg xmlns="http://www.w3.org/2000/svg" width="16" height="17" viewBox="0 0 16 17"><path fill-rule="evenodd" d="M2 2.766a.6.6 0 01.6-.6h4.2a.6.6 0 01.6.6v4.2a.6.6 0 01-.6.6H2.6a.6.6 0 01-.6-.6v-4.2zm1.2.6v3h3v-3h-3zm5.4-.6a.6.6 0 01.6-.6h4.2a.6.6 0 01.6.6v4.2a.6.6 0 01-.6.6H9.2a.6.6 0 01-.6-.6v-4.2zm1.2.6v3h3v-3h-3zm-7.2 5.4a.6.6 0 00-.6.6v4.2a.6.6 0 00.6.6h4.2a.6.6 0 00.6-.6v-4.2a.6.6 0 00-.6-.6H2.6zm.6 4.2v-3h3v3h-3z"/><path d="M11.3 9.066a.6.6 0 01.6.6v1.2h1.2a.6.6 0 110 1.2h-1.2v1.2a.6.6 0 01-1.2 0v-1.2H9.5a.6.6 0 010-1.2h1.2v-1.2a.6.6 0 01.6-.6z"/></svg>
